_includes/icons/ios-reddit.svg

<svg fill="#666" height="50" viewBox="0 0 50 50" width="50" xmlns="http://www.w3.org/2000/svg"><path d="m29 3c-.9375 0-1.835937.382813-2.5 1-.664062.617188-1.136719 1.433594-1.5 2.40625-.644531 1.734375-.914062 3.988281-.96875 6.625-4.796875.148438-9.210937 1.390625-12.75 3.4375-1.066406-1-2.425781-1.5-3.78125-1.5-1.410156 0-2.824219.542969-3.90625 1.625-2.167969 2.167969-2.167969 5.644531 0 7.8125l.25.25c-.53125 1.378906-.84375 2.832031-.84375 4.34375 0 4.527344 2.566406 8.585938 6.5625 11.4375 3.996094 2.851563 9.445313 4.5625 15.4375 4.5625 5.992188 0 11.441406-1.710937 15.4375-4.5625 3.996094-2.851562 6.5625-6.910156 6.5625-11.4375 0-1.511719-.3125-2.964844-.84375-4.34375l.25-.25c2.167969-2.167969 2.167969-5.644531 0-7.8125-1.082031-1.082031-2.496094-1.625-3.90625-1.625-1.355469 0-2.714844.5-3.78125 1.5-3.523437-2.035156-7.917969-3.277344-12.6875-3.4375.0625-2.484375.332031-4.5625.84375-5.9375.289063-.777344.652344-1.335937 1-1.65625.347656-.320312.664063-.4375 1.125-.4375.460938 0 .683594.125 1.03125.40625s.753906.742188 1.28125 1.28125c.941406.964844 2.382813 2.027344 4.78125 2.25.445313 2.300781 2.480469 4.0625 4.90625 4.0625 2.75 0 5-2.25 5-5s-2.25-5-5-5c-2.394531 0-4.425781 1.710938-4.90625 3.96875-1.78125-.171875-2.566406-.859375-3.34375-1.65625-.449219-.460937-.863281-1-1.4375-1.46875s-1.375-.84375-2.3125-.84375zm12 2c1.667969 0 3 1.332031 3 3s-1.332031 3-3 3-3-1.332031-3-3 1.332031-3 3-3zm-16 10c5.609375 0 10.675781 1.613281 14.28125 4.1875s5.71875 6.039063 5.71875 9.8125c0 3.773438-2.113281 7.238281-5.71875 9.8125s-8.671875 4.1875-14.28125 4.1875-10.675781-1.613281-14.28125-4.1875-5.71875-6.039062-5.71875-9.8125c0-3.773437 2.113281-7.238281 5.71875-9.8125s8.671875-4.1875 14.28125-4.1875zm-17.5 1.9375c.703125 0 1.414063.210938 2.03125.65625-2.003906 1.4375-3.644531 3.175781-4.78125 5.125-1.167969-1.421875-1.089844-3.378906.25-4.71875.714844-.714844 1.609375-1.0625 2.5-1.0625zm35 0c.890625 0 1.785156.347656 2.5 1.0625 1.339844 1.339844 1.417969 3.296875.25 4.71875-1.136719-1.949219-2.777344-3.6875-4.78125-5.125.617188-.445312 1.328125-.65625 2.03125-.65625zm-25.5 5.0625c-2.199219 0-4 1.800781-4 4s1.800781 4 4 4 4-1.800781 4-4-1.800781-4-4-4zm16 0c-2.199219 0-4 1.800781-4 4s1.800781 4 4 4 4-1.800781 4-4-1.800781-4-4-4zm-16 2c1.117188 0 2 .882813 2 2 0 1.117188-.882812 2-2 2-1.117187 0-2-.882812-2-2 0-1.117187.882813-2 2-2zm16 0c1.117188 0 2 .882813 2 2 0 1.117188-.882812 2-2 2-1.117187 0-2-.882812-2-2 0-1.117187.882813-2 2-2zm1.15625 9.84375c-.054687.007813-.105469.015625-.15625.03125-.316406.0625-.582031.269531-.71875.5625 0 0-.523437.726563-1.84375 1.5625-1.320312.835938-3.378906 1.6875-6.4375 1.6875s-5.117187-.851562-6.4375-1.6875c-1.320312-.835937-1.84375-1.5625-1.84375-1.5625-.226562-.355469-.652344-.53125-1.0625-.4375-.324219.082031-.585937.316406-.699219.632813-.113281.3125-.0625.660156.136719.929687 0 0 .769531 1.109375 2.375 2.125s4.089844 2 7.53125 2 5.925781-.984375 7.53125-2 2.375-2.125 2.375-2.125c.300781-.289062.390625-.738281.222656-1.121094-.167968-.382812-.554687-.621093-.972656-.597656z"/></svg>

<svg xmlns="http://www.w3.org/2000/svg" viewBox="0 0 50 50" width="50" height="50" fill="#666"><path d="M 29 3 C 28.0625 3 27.164063 3.382813 26.5 4 C 25.835938 4.617188 25.363281 5.433594 25 6.40625 C 24.355469 8.140625 24.085938 10.394531 24.03125 13.03125 C 19.234375 13.179688 14.820313 14.421875 11.28125 16.46875 C 10.214844 15.46875 8.855469 14.96875 7.5 14.96875 C 6.089844 14.96875 4.675781 15.511719 3.59375 16.59375 C 1.425781 18.761719 1.425781 22.238281 3.59375 24.40625 L 3.84375 24.65625 C 3.3125 26.035156 3 27.488281 3 29 C 3 33.527344 5.566406 37.585938 9.5625 40.4375 C 13.558594 43.289063 19.007813 45 25 45 C 30.992188 45 36.441406 43.289063 40.4375 40.4375 C 44.433594 37.585938 47 33.527344 47 29 C 47 27.488281 46.6875 26.035156 46.15625 24.65625 L 46.40625 24.40625 C 48.574219 22.238281 48.574219 18.761719 46.40625 16.59375 C 45.324219 15.511719 43.910156 14.96875 42.5 14.96875 C 41.144531 14.96875 39.785156 15.46875 38.71875 16.46875 C 35.195313 14.433594 30.800781 13.191406 26.03125 13.03125 C 26.09375 10.546875 26.363281 8.46875 26.875 7.09375 C 27.164063 6.316406 27.527344 5.757813 27.875 5.4375 C 28.222656 5.117188 28.539063 5 29 5 C 29.460938 5 29.683594 5.125 30.03125 5.40625 C 30.378906 5.6875 30.785156 6.148438 31.3125 6.6875 C 32.253906 7.652344 33.695313 8.714844 36.09375 8.9375 C 36.539063 11.238281 38.574219 13 41 13 C 43.75 13 46 10.75 46 8 C 46 5.25 43.75 3 41 3 C 38.605469 3 36.574219 4.710938 36.09375 6.96875 C 34.3125 6.796875 33.527344 6.109375 32.75 5.3125 C 32.300781 4.851563 31.886719 4.3125 31.3125 3.84375 C 30.738281 3.375 29.9375 3 29 3 Z M 41 5 C 42.667969 5 44 6.332031 44 8 C 44 9.667969 42.667969 11 41 11 C 39.332031 11 38 9.667969 38 8 C 38 6.332031 39.332031 5 41 5 Z M 25 15 C 30.609375 15 35.675781 16.613281 39.28125 19.1875 C 42.886719 21.761719 45 25.226563 45 29 C 45 32.773438 42.886719 36.238281 39.28125 38.8125 C 35.675781 41.386719 30.609375 43 25 43 C 19.390625 43 14.324219 41.386719 10.71875 38.8125 C 7.113281 36.238281 5 32.773438 5 29 C 5 25.226563 7.113281 21.761719 10.71875 19.1875 C 14.324219 16.613281 19.390625 15 25 15 Z M 7.5 16.9375 C 8.203125 16.9375 8.914063 17.148438 9.53125 17.59375 C 7.527344 19.03125 5.886719 20.769531 4.75 22.71875 C 3.582031 21.296875 3.660156 19.339844 5 18 C 5.714844 17.285156 6.609375 16.9375 7.5 16.9375 Z M 42.5 16.9375 C 43.390625 16.9375 44.285156 17.285156 45 18 C 46.339844 19.339844 46.417969 21.296875 45.25 22.71875 C 44.113281 20.769531 42.472656 19.03125 40.46875 17.59375 C 41.085938 17.148438 41.796875 16.9375 42.5 16.9375 Z M 17 22 C 14.800781 22 13 23.800781 13 26 C 13 28.199219 14.800781 30 17 30 C 19.199219 30 21 28.199219 21 26 C 21 23.800781 19.199219 22 17 22 Z M 33 22 C 30.800781 22 29 23.800781 29 26 C 29 28.199219 30.800781 30 33 30 C 35.199219 30 37 28.199219 37 26 C 37 23.800781 35.199219 22 33 22 Z M 17 24 C 18.117188 24 19 24.882813 19 26 C 19 27.117188 18.117188 28 17 28 C 15.882813 28 15 27.117188 15 26 C 15 24.882813 15.882813 24 17 24 Z M 33 24 C 34.117188 24 35 24.882813 35 26 C 35 27.117188 34.117188 28 33 28 C 31.882813 28 31 27.117188 31 26 C 31 24.882813 31.882813 24 33 24 Z M 34.15625 33.84375 C 34.101563 33.851563 34.050781 33.859375 34 33.875 C 33.683594 33.9375 33.417969 34.144531 33.28125 34.4375 C 33.28125 34.4375 32.757813 35.164063 31.4375 36 C 30.117188 36.835938 28.058594 37.6875 25 37.6875 C 21.941406 37.6875 19.882813 36.835938 18.5625 36 C 17.242188 35.164063 16.71875 34.4375 16.71875 34.4375 C 16.492188 34.082031 16.066406 33.90625 15.65625 34 C 15.332031 34.082031 15.070313 34.316406 14.957031 34.632813 C 14.84375 34.945313 14.894531 35.292969 15.09375 35.5625 C 15.09375 35.5625 15.863281 36.671875 17.46875 37.6875 C 19.074219 38.703125 21.558594 39.6875 25 39.6875 C 28.441406 39.6875 30.925781 38.703125 32.53125 37.6875 C 34.136719 36.671875 34.90625 35.5625 34.90625 35.5625 C 35.207031 35.273438 35.296875 34.824219 35.128906 34.441406 C 34.960938 34.058594 34.574219 33.820313 34.15625 33.84375 Z"/></svg>
